src/actions/24/upload-media.svg

<svg xmlns="http://www.w3.org/2000/svg" viewBox="0 0 24 24">
  <defs id="defs3051">
    <style type="text/css" id="current-color-scheme">
      .ColorScheme-Text {
        color:#363636;
      }
      </style>
  </defs>
 <path style="fill:currentColor;fill-opacity:1;stroke:none" 
     d="M 4 4 L 4 20 L 20 20 L 20 9 L 19 9 L 19 19 L 5 19 L 5 5 L 14 5 L 14 4 L 4 4 z M 16.5 4 L 15.792969 4.7070312 L 13 7.5 L 13.707031 8.2070312 L 16 5.9140625 L 16 10.207031 L 16 11 L 17 11 L 17 5.9140625 L 19.292969 8.2070312 L 20 7.5 L 17.207031 4.7070312 L 16.5 4 z M 8.5 6 C 7.115 6 6 7.115 6 8.5 C 6 9.885 7.115 11 8.5 11 C 9.885 11 11 9.885 11 8.5 C 11 7.115 9.885 6 8.5 6 z M 8.5 7 C 9.331 7 10 7.669 10 8.5 C 10 9.331 9.331 10 8.5 10 C 7.669 10 7 9.331 7 8.5 C 7 7.669 7.669 7 8.5 7 z M 14.994141 11 L 11.648438 14.34375 L 10.306641 13 L 10.300781 13.007812 L 10.292969 13 L 6 17.292969 L 6.7070312 18 L 10.298828 14.408203 L 10.941406 15.050781 L 11.648438 15.757812 L 12.355469 15.050781 L 15 12.40625 L 17.292969 14.699219 L 18 13.992188 L 15.007812 11 L 15 11.007812 L 14.994141 11 z "
     class="ColorScheme-Text"
     />
</svg>

<svg xmlns="http://www.w3.org/2000/svg" viewBox="0 0 24 24">
    <path d="M4 4v16h16V9h-1v10H5V5h9V4H4zm12.5 0-.707.707L13 7.5l.707.707L16 5.914V11h1V5.914l2.293 2.293L20 7.5l-2.793-2.793L16.5 4zm-8 2A2.495 2.495 0 0 0 6 8.5C6 9.885 7.115 11 8.5 11S11 9.885 11 8.5 9.885 6 8.5 6zm0 1c.831 0 1.5.669 1.5 1.5S9.331 10 8.5 10 7 9.331 7 8.5 7.669 7 8.5 7zm6.494 4-3.346 3.344L10.307 13l-.006.008-.008-.008L6 17.293l.707.707 3.592-3.592.642.643.707.707.707-.707L15 12.406l2.293 2.293.707-.707L15.008 11l-.008.008-.006-.008z" style="fill:currentColor;fill-opacity:1;stroke:none;color:#050505;opacity:.7"/>
</svg>
